tools/download-figma-icons/icons/outlined-large/stopwatch.svg

<svg width="64" height="64" viewBox="0 0 64 64" fill="none" xmlns="http://www.w3.org/2000/svg">
<path fill-rule="evenodd" clip-rule="evenodd" d="M45.5485 55.468L46.2705 56.718C49.2295 54.768 51.7675 52.23 53.7175 49.271L52.4675 48.549C51.7495 48.135 51.5045 47.217 51.9185 46.5C52.3325 45.781 53.2505 45.537 53.9675 45.951L55.2205 46.675C56.7815 43.583 57.7455 40.143 57.9535 36.5H56.4995C55.6715 36.5 54.9995 35.828 54.9995 35C54.9995 34.172 55.6715 33.5 56.4995 33.5H57.9535C57.7455 29.858 56.7815 26.417 55.2205 23.325L53.9675 24.049C53.7315 24.186 53.4735 24.25 53.2185 24.25C52.7015 24.25 52.1965 23.982 51.9185 23.5C51.5045 22.783 51.7495 21.865 52.4675 21.451L53.7175 20.73C51.7675 17.771 49.2295 15.233 46.2705 13.282L45.5485 14.532C45.2715 15.014 44.7665 15.282 44.2495 15.282C43.9945 15.282 43.7365 15.218 43.4995 15.081C42.7825 14.667 42.5375 13.749 42.9515 13.032L43.6745 11.78C40.5835 10.219 37.1425 9.255 33.4995 9.047V10.5C33.4995 11.328 32.8285 12 31.9995 12C31.1715 12 30.4995 11.328 30.4995 10.5V9.047C26.8575 9.255 23.4165 10.219 20.3255 11.78L21.0485 13.032C21.4625 13.749 21.2175 14.667 20.4995 15.081C20.2635 15.218 20.0055 15.282 19.7505 15.282C19.2335 15.282 18.7285 15.014 18.4515 14.532L17.7295 13.282C14.7705 15.233 12.2325 17.771 10.2825 20.73L11.5325 21.451C12.2495 21.865 12.4955 22.783 12.0815 23.5C11.8035 23.982 11.2985 24.25 10.7815 24.25C10.5265 24.25 10.2685 24.186 10.0325 24.049L8.77951 23.325C7.21851 26.417 6.25451 29.858 6.04651 33.5H7.49951C8.32851 33.5 8.99951 34.172 8.99951 35C8.99951 35.828 8.32851 36.5 7.49951 36.5H6.04651C6.25451 40.143 7.21851 43.583 8.77951 46.675L10.0325 45.951C10.7485 45.537 11.6665 45.781 12.0815 46.5C12.4955 47.217 12.2495 48.135 11.5325 48.549L10.2825 49.271C12.2325 52.23 14.7705 54.768 17.7295 56.718L18.4515 55.468C18.8655 54.749 19.7835 54.504 20.4995 54.919C21.2175 55.333 21.4625 56.251 21.0485 56.968L20.3255 58.221C23.4165 59.781 26.8575 60.745 30.4995 60.953V59.5C30.4995 58.672 31.1715 58 31.9995 58C32.8285 58 33.4995 58.672 33.4995 59.5V60.953C37.1425 60.745 40.5835 59.781 43.6745 58.221L42.9515 56.968C42.5375 56.251 42.7825 55.333 43.4995 54.919C44.2145 54.504 45.1345 54.749 45.5485 55.468ZM55.4995 13.621L53.5285 15.593C58.1685 20.737 60.9995 27.543 60.9995 35C60.9995 50.99 47.9905 64 31.9995 64C16.0095 64 2.99951 50.99 2.99951 35C2.99951 19.513 15.2045 6.822 30.4995 6.038V3H26.4995C25.6715 3 24.9995 2.328 24.9995 1.5C24.9995 0.672 25.6715 0 26.4995 0H37.4995C38.3285 0 38.9995 0.672 38.9995 1.5C38.9995 2.328 38.3285 3 37.4995 3H33.4995V6.038C40.3675 6.391 46.6105 9.144 51.4075 13.472L53.3785 11.5L52.4395 10.561C51.8535 9.975 51.8535 9.026 52.4395 8.44C53.0255 7.854 53.9745 7.854 54.5605 8.44L58.5605 12.44C59.1465 13.026 59.1465 13.975 58.5605 14.561C58.2675 14.854 57.8835 15 57.4995 15C57.1165 15 56.7325 14.854 56.4395 14.561L55.4995 13.621ZM30 35.0002C30 36.1032 30.897 37.0002 32 37.0002C33.103 37.0002 34 36.1032 34 35.0002C34 33.8972 33.103 33.0002 32 33.0002C30.897 33.0002 30 33.8972 30 35.0002ZM36.745 33.5002H45.5C46.328 33.5002 47 34.1722 47 35.0002C47 35.8282 46.328 36.5002 45.5 36.5002H36.745C36.104 38.5212 34.23 40.0002 32 40.0002C29.243 40.0002 27 37.7572 27 35.0002C27 32.7702 28.479 30.8962 30.5 30.2552V17.5002C30.5 16.6722 31.172 16.0002 32 16.0002C32.828 16.0002 33.5 16.6722 33.5 17.5002V30.2552C35.045 30.7462 36.254 31.9552 36.745 33.5002Z" fill="black"/>
</svg>

<svg xmlns="http://www.w3.org/2000/svg" width="64" height="64" fill="none" viewBox="0 0 64 64"><path fill="currentColor" fill-rule="evenodd" d="m45.549 55.468.721 1.25a26.2 26.2 0 0 0 7.447-7.447l-1.25-.722a1.5 1.5 0 1 1 1.5-2.598l1.254.724A25.8 25.8 0 0 0 57.954 36.5h-1.455a1.5 1.5 0 0 1 0-3h1.454a25.8 25.8 0 0 0-2.733-10.175l-1.252.724a1.499 1.499 0 1 1-1.5-2.598l1.25-.721a26.2 26.2 0 0 0-7.448-7.448l-.722 1.25a1.496 1.496 0 0 1-2.049.549 1.5 1.5 0 0 1-.547-2.049l.723-1.252A25.8 25.8 0 0 0 33.5 9.047V10.5a1.5 1.5 0 1 1-3 0V9.047a25.8 25.8 0 0 0-10.174 2.733l.723 1.252a1.5 1.5 0 1 1-2.597 1.5l-.723-1.25a26.2 26.2 0 0 0-7.446 7.448l1.25.721a1.5 1.5 0 0 1-1.5 2.598l-1.253-.724A25.8 25.8 0 0 0 6.047 33.5H7.5a1.5 1.5 0 1 1 0 3H6.047A25.8 25.8 0 0 0 8.78 46.675l1.253-.724a1.5 1.5 0 1 1 1.5 2.598l-1.25.722a26.2 26.2 0 0 0 7.447 7.447l.721-1.25a1.5 1.5 0 1 1 2.597 1.5l-.723 1.253A25.8 25.8 0 0 0 30.5 60.953V59.5a1.5 1.5 0 0 1 3 0v1.453a25.8 25.8 0 0 0 10.175-2.732l-.723-1.253a1.5 1.5 0 0 1 2.596-1.5m9.95-41.847-1.97 1.972c4.64 5.144 7.47 11.95 7.47 19.407 0 15.99-13.009 29-29 29S3 50.99 3 35C3 19.513 15.205 6.822 30.5 6.038V3h-4a1.5 1.5 0 0 1 0-3h11a1.5 1.5 0 1 1 0 3h-4v3.038c6.868.353 13.112 3.106 17.908 7.434L53.38 11.5l-.94-.939a1.5 1.5 0 1 1 2.12-2.121l4 4a1.5 1.5 0 1 1-2.12 2.121zM30 35.001c0 1.102.897 2 2 2s2-.898 2-2c0-1.104-.897-2-2-2s-2 .896-2 2m6.745-1.5H45.5a1.5 1.5 0 0 1 0 3h-8.755C36.104 38.52 34.23 40 32 40c-2.757 0-5-2.244-5-5 0-2.23 1.479-4.105 3.5-4.746V17.5a1.5 1.5 0 0 1 3 0v12.755a4.99 4.99 0 0 1 3.245 3.245" clip-rule="evenodd"/></svg>
